X: 3151
T: Lady Elibanks Favourite    Strathspey
%R: strathspey
B: Niel Gow & Sons "A Third Collection of Strathspey Reels, etc." v.3 p.15 #1 (top 2 staffs continued from p.14)
Z: 2022 John Chambers <jc:trillian.mit.edu>
M: C
L: 1/8
Q: "Slow"
K: Gm
% - - - - - - - - - -
V: 1 staves=2
B |:\
G<GTG>F DFFB | GGGA TB>cdg | G<GTG>F DFFB |1 G>AB>c d(g^f)g :|2 G,>A,B,C DGG |: b |
~g>dgb f>cfa | g>dgb gafg | dfcf AFFA |1 TG>ATB>c dgg :|2 G,>A,B,C DGG |]
% - - - - - - - - - -
% Voice 2 preserves the staff layout in the book.
V: 2 clef=bass middle=d
z |: g2g2 f2f2 | g2d2 G2g2 | b2g2 f2f2 |1 g2d2 G2G2 :|2 G2D2 G2G |: z |
g2g2 f2f2 | g2g2 e2d2 | B2c2 F2F2 |1 G2d2 g2G :|2 G2D2 G2g |]


